( This file was created automatically using CamBam )
( http://www.brusselsprout.org/CAMBAM )
( 12/9/2017 11:33:31 AM )
( T0 : 4.3 )
G21
G90
G64
G00 Z3.5
( MOPPocket_2 )
( T0 : 4.3 )
M06 T0
M03
G00 X-83.65 Y-7
G01 F30 Z-0.5
G02 F100 X-85.675 Y-8.169134 I-1.35 J0
G02 Y-5.830866 I0.675 J1.169134
G02 X-83.65 Y-7 I0.675 J-1.169134
G01 F30 Z-1
G02 F100 X-85.675 Y-8.169134 I-1.35 J0
G02 Y-5.830866 I0.675 J1.169134
G02 X-83.65 Y-7 I0.675 J-1.169134
G01 F30 Z-1.5
G02 F100 X-85.675 Y-8.169134 I-1.35 J0
G02 Y-5.830866 I0.675 J1.169134
G02 X-83.65 Y-7 I0.675 J-1.169134
G01 F30 Z-2
G02 F100 X-85.675 Y-8.169134 I-1.35 J0
G02 Y-5.830866 I0.675 J1.169134
G02 X-83.65 Y-7 I0.675 J-1.169134
G01 F30 Z-2.5
G02 F100 X-85.675 Y-8.169134 I-1.35 J0
G02 Y-5.830866 I0.675 J1.169134
G02 X-83.65 Y-7 I0.675 J-1.169134
G01 F30 Z-3
G02 F100 X-85.675 Y-8.169134 I-1.35 J0
G02 Y-5.830866 I0.675 J1.169134
G02 X-83.65 Y-7 I0.675 J-1.169134
G01 F30 Z-3.5
G02 F100 X-85.675 Y-8.169134 I-1.35 J0
G02 Y-5.830866 I0.675 J1.169134
G02 X-83.65 Y-7 I0.675 J-1.169134
G01 F30 Z-4
G02 F100 X-85.675 Y-8.169134 I-1.35 J0
G02 Y-5.830866 I0.675 J1.169134
G02 X-83.65 Y-7 I0.675 J-1.169134
G00 Z3.5
G00 X-63.65 Y10
G01 F30 Z-0.5
G02 F100 X-65.675 Y8.830866 I-1.35 J0
G02 Y11.169134 I0.675 J1.169134
G02 X-63.65 Y10 I0.675 J-1.169134
G01 F30 Z-1
G02 F100 X-65.675 Y8.830866 I-1.35 J0
G02 Y11.169134 I0.675 J1.169134
G02 X-63.65 Y10 I0.675 J-1.169134
G01 F30 Z-1.5
G02 F100 X-65.675 Y8.830866 I-1.35 J0
G02 Y11.169134 I0.675 J1.169134
G02 X-63.65 Y10 I0.675 J-1.169134
G01 F30 Z-2
G02 F100 X-65.675 Y8.830866 I-1.35 J0
G02 Y11.169134 I0.675 J1.169134
G02 X-63.65 Y10 I0.675 J-1.169134
G01 F30 Z-2.5
G02 F100 X-65.675 Y8.830866 I-1.35 J0
G02 Y11.169134 I0.675 J1.169134
G02 X-63.65 Y10 I0.675 J-1.169134
G01 F30 Z-3
G02 F100 X-65.675 Y8.830866 I-1.35 J0
G02 Y11.169134 I0.675 J1.169134
G02 X-63.65 Y10 I0.675 J-1.169134
G01 F30 Z-3.5
G02 F100 X-65.675 Y8.830866 I-1.35 J0
G02 Y11.169134 I0.675 J1.169134
G02 X-63.65 Y10 I0.675 J-1.169134
G01 F30 Z-4
G02 F100 X-65.675 Y8.830866 I-1.35 J0
G02 Y11.169134 I0.675 J1.169134
G02 X-63.65 Y10 I0.675 J-1.169134
G00 Z3.5
G00 X-73.22 Y31.43
G01 F30 Z-0.5
G02 F100 X-73.745 Y31.126891 I-0.35 J0
G02 Y31.733109 I0.175 J0.303109
G02 X-73.22 Y31.43 I0.175 J-0.303109
G01 F30 Z-1
G02 F100 X-73.745 Y31.126891 I-0.35 J0
G02 Y31.733109 I0.175 J0.303109
G02 X-73.22 Y31.43 I0.175 J-0.303109
G01 F30 Z-1.5
G02 F100 X-73.745 Y31.126891 I-0.35 J0
G02 Y31.733109 I0.175 J0.303109
G02 X-73.22 Y31.43 I0.175 J-0.303109
G01 F30 Z-2
G02 F100 X-73.745 Y31.126891 I-0.35 J0
G02 Y31.733109 I0.175 J0.303109
G02 X-73.22 Y31.43 I0.175 J-0.303109
G01 F30 Z-2.5
G02 F100 X-73.745 Y31.126891 I-0.35 J0
G02 Y31.733109 I0.175 J0.303109
G02 X-73.22 Y31.43 I0.175 J-0.303109
G01 F30 Z-3
G02 F100 X-73.745 Y31.126891 I-0.35 J0
G02 Y31.733109 I0.175 J0.303109
G02 X-73.22 Y31.43 I0.175 J-0.303109
G01 F30 Z-3.5
G02 F100 X-73.745 Y31.126891 I-0.35 J0
G02 Y31.733109 I0.175 J0.303109
G02 X-73.22 Y31.43 I0.175 J-0.303109
G01 F30 Z-4
G02 F100 X-73.745 Y31.126891 I-0.35 J0
G02 Y31.733109 I0.175 J0.303109
G02 X-73.22 Y31.43 I0.175 J-0.303109
G00 Z3.5
G00 X-23.65 Y10
G01 F30 Z-0.5
G02 F100 X-25.675 Y8.830866 I-1.35 J0
G02 Y11.169134 I0.675 J1.169134
G02 X-23.65 Y10 I0.675 J-1.169134
G01 F30 Z-1
G02 F100 X-25.675 Y8.830866 I-1.35 J0
G02 Y11.169134 I0.675 J1.169134
G02 X-23.65 Y10 I0.675 J-1.169134
G01 F30 Z-1.5
G02 F100 X-25.675 Y8.830866 I-1.35 J0
G02 Y11.169134 I0.675 J1.169134
G02 X-23.65 Y10 I0.675 J-1.169134
G01 F30 Z-2
G02 F100 X-25.675 Y8.830866 I-1.35 J0
G02 Y11.169134 I0.675 J1.169134
G02 X-23.65 Y10 I0.675 J-1.169134
G01 F30 Z-2.5
G02 F100 X-25.675 Y8.830866 I-1.35 J0
G02 Y11.169134 I0.675 J1.169134
G02 X-23.65 Y10 I0.675 J-1.169134
G01 F30 Z-3
G02 F100 X-25.675 Y8.830866 I-1.35 J0
G02 Y11.169134 I0.675 J1.169134
G02 X-23.65 Y10 I0.675 J-1.169134
G01 F30 Z-3.5
G02 F100 X-25.675 Y8.830866 I-1.35 J0
G02 Y11.169134 I0.675 J1.169134
G02 X-23.65 Y10 I0.675 J-1.169134
G01 F30 Z-4
G02 F100 X-25.675 Y8.830866 I-1.35 J0
G02 Y11.169134 I0.675 J1.169134
G02 X-23.65 Y10 I0.675 J-1.169134
G00 Z3.5
G00 X-26.08 Y78.57
G01 F30 Z-0.5
G02 F100 X-26.605 Y78.266891 I-0.35 J0
G02 Y78.873109 I0.175 J0.303109
G02 X-26.08 Y78.57 I0.175 J-0.303109
G01 F30 Z-1
G02 F100 X-26.605 Y78.266891 I-0.35 J0
G02 Y78.873109 I0.175 J0.303109
G02 X-26.08 Y78.57 I0.175 J-0.303109
G01 F30 Z-1.5
G02 F100 X-26.605 Y78.266891 I-0.35 J0
G02 Y78.873109 I0.175 J0.303109
G02 X-26.08 Y78.57 I0.175 J-0.303109
G01 F30 Z-2
G02 F100 X-26.605 Y78.266891 I-0.35 J0
G02 Y78.873109 I0.175 J0.303109
G02 X-26.08 Y78.57 I0.175 J-0.303109
G01 F30 Z-2.5
G02 F100 X-26.605 Y78.266891 I-0.35 J0
G02 Y78.873109 I0.175 J0.303109
G02 X-26.08 Y78.57 I0.175 J-0.303109
G01 F30 Z-3
G02 F100 X-26.605 Y78.266891 I-0.35 J0
G02 Y78.873109 I0.175 J0.303109
G02 X-26.08 Y78.57 I0.175 J-0.303109
G01 F30 Z-3.5
G02 F100 X-26.605 Y78.266891 I-0.35 J0
G02 Y78.873109 I0.175 J0.303109
G02 X-26.08 Y78.57 I0.175 J-0.303109
G01 F30 Z-4
G02 F100 X-26.605 Y78.266891 I-0.35 J0
G02 Y78.873109 I0.175 J0.303109
G02 X-26.08 Y78.57 I0.175 J-0.303109
G00 Z3.5
G00 X25.35 Y90
G01 F30 Z-0.5
G02 F100 X24.825 Y89.696891 I-0.35 J0
G02 Y90.303109 I0.175 J0.303109
G02 X25.35 Y90 I0.175 J-0.303109
G01 F30 Z-1
G02 F100 X24.825 Y89.696891 I-0.35 J0
G02 Y90.303109 I0.175 J0.303109
G02 X25.35 Y90 I0.175 J-0.303109
G01 F30 Z-1.5
G02 F100 X24.825 Y89.696891 I-0.35 J0
G02 Y90.303109 I0.175 J0.303109
G02 X25.35 Y90 I0.175 J-0.303109
G01 F30 Z-2
G02 F100 X24.825 Y89.696891 I-0.35 J0
G02 Y90.303109 I0.175 J0.303109
G02 X25.35 Y90 I0.175 J-0.303109
G01 F30 Z-2.5
G02 F100 X24.825 Y89.696891 I-0.35 J0
G02 Y90.303109 I0.175 J0.303109
G02 X25.35 Y90 I0.175 J-0.303109
G01 F30 Z-3
G02 F100 X24.825 Y89.696891 I-0.35 J0
G02 Y90.303109 I0.175 J0.303109
G02 X25.35 Y90 I0.175 J-0.303109
G01 F30 Z-3.5
G02 F100 X24.825 Y89.696891 I-0.35 J0
G02 Y90.303109 I0.175 J0.303109
G02 X25.35 Y90 I0.175 J-0.303109
G01 F30 Z-4
G02 F100 X24.825 Y89.696891 I-0.35 J0
G02 Y90.303109 I0.175 J0.303109
G02 X25.35 Y90 I0.175 J-0.303109
G00 Z3.5
G00 X41.35 Y95
G01 F30 Z-0.5
G02 F100 X40.825 Y94.696891 I-0.35 J0
G02 Y95.303109 I0.175 J0.303109
G02 X41.35 Y95 I0.175 J-0.303109
G01 F30 Z-1
G02 F100 X40.825 Y94.696891 I-0.35 J0
G02 Y95.303109 I0.175 J0.303109
G02 X41.35 Y95 I0.175 J-0.303109
G01 F30 Z-1.5
G02 F100 X40.825 Y94.696891 I-0.35 J0
G02 Y95.303109 I0.175 J0.303109
G02 X41.35 Y95 I0.175 J-0.303109
G01 F30 Z-2
G02 F100 X40.825 Y94.696891 I-0.35 J0
G02 Y95.303109 I0.175 J0.303109
G02 X41.35 Y95 I0.175 J-0.303109
G01 F30 Z-2.5
G02 F100 X40.825 Y94.696891 I-0.35 J0
G02 Y95.303109 I0.175 J0.303109
G02 X41.35 Y95 I0.175 J-0.303109
G01 F30 Z-3
G02 F100 X40.825 Y94.696891 I-0.35 J0
G02 Y95.303109 I0.175 J0.303109
G02 X41.35 Y95 I0.175 J-0.303109
G01 F30 Z-3.5
G02 F100 X40.825 Y94.696891 I-0.35 J0
G02 Y95.303109 I0.175 J0.303109
G02 X41.35 Y95 I0.175 J-0.303109
G01 F30 Z-4
G02 F100 X40.825 Y94.696891 I-0.35 J0
G02 Y95.303109 I0.175 J0.303109
G02 X41.35 Y95 I0.175 J-0.303109
G00 Z3.5
G00 X86.35 Y-7
G01 F30 Z-0.5
G02 F100 X84.325 Y-8.169134 I-1.35 J0
G02 Y-5.830866 I0.675 J1.169134
G02 X86.35 Y-7 I0.675 J-1.169134
G01 F30 Z-1
G02 F100 X84.325 Y-8.169134 I-1.35 J0
G02 Y-5.830866 I0.675 J1.169134
G02 X86.35 Y-7 I0.675 J-1.169134
G01 F30 Z-1.5
G02 F100 X84.325 Y-8.169134 I-1.35 J0
G02 Y-5.830866 I0.675 J1.169134
G02 X86.35 Y-7 I0.675 J-1.169134
G01 F30 Z-2
G02 F100 X84.325 Y-8.169134 I-1.35 J0
G02 Y-5.830866 I0.675 J1.169134
G02 X86.35 Y-7 I0.675 J-1.169134
G01 F30 Z-2.5
G02 F100 X84.325 Y-8.169134 I-1.35 J0
G02 Y-5.830866 I0.675 J1.169134
G02 X86.35 Y-7 I0.675 J-1.169134
G01 F30 Z-3
G02 F100 X84.325 Y-8.169134 I-1.35 J0
G02 Y-5.830866 I0.675 J1.169134
G02 X86.35 Y-7 I0.675 J-1.169134
G01 F30 Z-3.5
G02 F100 X84.325 Y-8.169134 I-1.35 J0
G02 Y-5.830866 I0.675 J1.169134
G02 X86.35 Y-7 I0.675 J-1.169134
G01 F30 Z-4
G02 F100 X84.325 Y-8.169134 I-1.35 J0
G02 Y-5.830866 I0.675 J1.169134
G02 X86.35 Y-7 I0.675 J-1.169134
G00 Z3.5
G00 Y-115
G01 F30 Z-0.5
G02 F100 X84.325 Y-116.169134 I-1.35 J0
G02 Y-113.830866 I0.675 J1.169134
G02 X86.35 Y-115 I0.675 J-1.169134
G01 F30 Z-1
G02 F100 X84.325 Y-116.169134 I-1.35 J0
G02 Y-113.830866 I0.675 J1.169134
G02 X86.35 Y-115 I0.675 J-1.169134
G01 F30 Z-1.5
G02 F100 X84.325 Y-116.169134 I-1.35 J0
G02 Y-113.830866 I0.675 J1.169134
G02 X86.35 Y-115 I0.675 J-1.169134
G01 F30 Z-2
G02 F100 X84.325 Y-116.169134 I-1.35 J0
G02 Y-113.830866 I0.675 J1.169134
G02 X86.35 Y-115 I0.675 J-1.169134
G01 F30 Z-2.5
G02 F100 X84.325 Y-116.169134 I-1.35 J0
G02 Y-113.830866 I0.675 J1.169134
G02 X86.35 Y-115 I0.675 J-1.169134
G01 F30 Z-3
G02 F100 X84.325 Y-116.169134 I-1.35 J0
G02 Y-113.830866 I0.675 J1.169134
G02 X86.35 Y-115 I0.675 J-1.169134
G01 F30 Z-3.5
G02 F100 X84.325 Y-116.169134 I-1.35 J0
G02 Y-113.830866 I0.675 J1.169134
G02 X86.35 Y-115 I0.675 J-1.169134
G01 F30 Z-4
G02 F100 X84.325 Y-116.169134 I-1.35 J0
G02 Y-113.830866 I0.675 J1.169134
G02 X86.35 Y-115 I0.675 J-1.169134
G00 Z3.5
G00 X-83.65
G01 F30 Z-0.5
G02 F100 X-85.675 Y-116.169134 I-1.35 J0
G02 Y-113.830866 I0.675 J1.169134
G02 X-83.65 Y-115 I0.675 J-1.169134
G01 F30 Z-1
G02 F100 X-85.675 Y-116.169134 I-1.35 J0
G02 Y-113.830866 I0.675 J1.169134
G02 X-83.65 Y-115 I0.675 J-1.169134
G01 F30 Z-1.5
G02 F100 X-85.675 Y-116.169134 I-1.35 J0
G02 Y-113.830866 I0.675 J1.169134
G02 X-83.65 Y-115 I0.675 J-1.169134
G01 F30 Z-2
G02 F100 X-85.675 Y-116.169134 I-1.35 J0
G02 Y-113.830866 I0.675 J1.169134
G02 X-83.65 Y-115 I0.675 J-1.169134
G01 F30 Z-2.5
G02 F100 X-85.675 Y-116.169134 I-1.35 J0
G02 Y-113.830866 I0.675 J1.169134
G02 X-83.65 Y-115 I0.675 J-1.169134
G01 F30 Z-3
G02 F100 X-85.675 Y-116.169134 I-1.35 J0
G02 Y-113.830866 I0.675 J1.169134
G02 X-83.65 Y-115 I0.675 J-1.169134
G01 F30 Z-3.5
G02 F100 X-85.675 Y-116.169134 I-1.35 J0
G02 Y-113.830866 I0.675 J1.169134
G02 X-83.65 Y-115 I0.675 J-1.169134
G01 F30 Z-4
G02 F100 X-85.675 Y-116.169134 I-1.35 J0
G02 Y-113.830866 I0.675 J1.169134
G02 X-83.65 Y-115 I0.675 J-1.169134
( MOPPocket_3 )
G00 Z3.5
G00 X25.35 Y80
G01 F30 Z-1
G02 F150 X24.825 Y79.696891 I-0.35 J0
G02 Y80.303109 I0.175 J0.303109
G02 X25.35 Y80 I0.175 J-0.303109
G01 F30 Z-2
G02 F150 X24.825 Y79.696891 I-0.35 J0
G02 Y80.303109 I0.175 J0.303109
G02 X25.35 Y80 I0.175 J-0.303109
G01 F30 Z-3
G02 F150 X24.825 Y79.696891 I-0.35 J0
G02 Y80.303109 I0.175 J0.303109
G02 X25.35 Y80 I0.175 J-0.303109
G01 F30 Z-4
G02 F150 X24.825 Y79.696891 I-0.35 J0
G02 Y80.303109 I0.175 J0.303109
G02 X25.35 Y80 I0.175 J-0.303109
G00 Z3.5
G00 X41.35 Y75
G01 F30 Z-1
G02 F150 X40.825 Y74.696891 I-0.35 J0
G02 Y75.303109 I0.175 J0.303109
G02 X41.35 Y75 I0.175 J-0.303109
G01 F30 Z-2
G02 F150 X40.825 Y74.696891 I-0.35 J0
G02 Y75.303109 I0.175 J0.303109
G02 X41.35 Y75 I0.175 J-0.303109
G01 F30 Z-3
G02 F150 X40.825 Y74.696891 I-0.35 J0
G02 Y75.303109 I0.175 J0.303109
G02 X41.35 Y75 I0.175 J-0.303109
G01 F30 Z-4
G02 F150 X40.825 Y74.696891 I-0.35 J0
G02 Y75.303109 I0.175 J0.303109
G02 X41.35 Y75 I0.175 J-0.303109
G00 Z3.5
G00 Y45
G01 F30 Z-1
G02 F150 X40.825 Y44.696891 I-0.35 J0
G02 Y45.303109 I0.175 J0.303109
G02 X41.35 Y45 I0.175 J-0.303109
G01 F30 Z-2
G02 F150 X40.825 Y44.696891 I-0.35 J0
G02 Y45.303109 I0.175 J0.303109
G02 X41.35 Y45 I0.175 J-0.303109
G01 F30 Z-3
G02 F150 X40.825 Y44.696891 I-0.35 J0
G02 Y45.303109 I0.175 J0.303109
G02 X41.35 Y45 I0.175 J-0.303109
G01 F30 Z-4
G02 F150 X40.825 Y44.696891 I-0.35 J0
G02 Y45.303109 I0.175 J0.303109
G02 X41.35 Y45 I0.175 J-0.303109
G00 Z3.5
G00 X25.35 Y40
G01 F30 Z-1
G02 F150 X24.825 Y39.696891 I-0.35 J0
G02 Y40.303109 I0.175 J0.303109
G02 X25.35 Y40 I0.175 J-0.303109
G01 F30 Z-2
G02 F150 X24.825 Y39.696891 I-0.35 J0
G02 Y40.303109 I0.175 J0.303109
G02 X25.35 Y40 I0.175 J-0.303109
G01 F30 Z-3
G02 F150 X24.825 Y39.696891 I-0.35 J0
G02 Y40.303109 I0.175 J0.303109
G02 X25.35 Y40 I0.175 J-0.303109
G01 F30 Z-4
G02 F150 X24.825 Y39.696891 I-0.35 J0
G02 Y40.303109 I0.175 J0.303109
G02 X25.35 Y40 I0.175 J-0.303109
G00 Z3.5
G00 Y30
G01 F30 Z-1
G02 F150 X24.825 Y29.696891 I-0.35 J0
G02 Y30.303109 I0.175 J0.303109
G02 X25.35 Y30 I0.175 J-0.303109
G01 F30 Z-2
G02 F150 X24.825 Y29.696891 I-0.35 J0
G02 Y30.303109 I0.175 J0.303109
G02 X25.35 Y30 I0.175 J-0.303109
G01 F30 Z-3
G02 F150 X24.825 Y29.696891 I-0.35 J0
G02 Y30.303109 I0.175 J0.303109
G02 X25.35 Y30 I0.175 J-0.303109
G01 F30 Z-4
G02 F150 X24.825 Y29.696891 I-0.35 J0
G02 Y30.303109 I0.175 J0.303109
G02 X25.35 Y30 I0.175 J-0.303109
G00 Z3.5
G00 X41.35 Y25
G01 F30 Z-1
G02 F150 X40.825 Y24.696891 I-0.35 J0
G02 Y25.303109 I0.175 J0.303109
G02 X41.35 Y25 I0.175 J-0.303109
G01 F30 Z-2
G02 F150 X40.825 Y24.696891 I-0.35 J0
G02 Y25.303109 I0.175 J0.303109
G02 X41.35 Y25 I0.175 J-0.303109
G01 F30 Z-3
G02 F150 X40.825 Y24.696891 I-0.35 J0
G02 Y25.303109 I0.175 J0.303109
G02 X41.35 Y25 I0.175 J-0.303109
G01 F30 Z-4
G02 F150 X40.825 Y24.696891 I-0.35 J0
G02 Y25.303109 I0.175 J0.303109
G02 X41.35 Y25 I0.175 J-0.303109
( MOPProfile_4 )
G00 Z3.5
G00 X-32.15 Y55
G01 F30 Z-0.5
G02 F100 X-58.925 Y39.541447 I-17.85 J0
G02 Y70.458553 I8.925 J15.458553
G02 X-32.15 Y55 I8.925 J-15.458553
G01 F30 Z-1
G02 F100 X-58.925 Y39.541447 I-17.85 J0
G02 Y70.458553 I8.925 J15.458553
G02 X-32.15 Y55 I8.925 J-15.458553
G01 F30 Z-1.5
G02 F100 X-58.925 Y39.541447 I-17.85 J0
G02 Y70.458553 I8.925 J15.458553
G02 X-32.15 Y55 I8.925 J-15.458553
G01 F30 Z-2
G02 F100 X-58.925 Y39.541447 I-17.85 J0
G02 Y70.458553 I8.925 J15.458553
G02 X-32.15 Y55 I8.925 J-15.458553
G01 F30 Z-2.5
G02 F100 X-58.925 Y39.541447 I-17.85 J0
G02 Y70.458553 I8.925 J15.458553
G02 X-32.15 Y55 I8.925 J-15.458553
G01 F30 Z-3
G02 F100 X-58.925 Y39.541447 I-17.85 J0
G02 Y70.458553 I8.925 J15.458553
G02 X-32.15 Y55 I8.925 J-15.458553
G01 F30 Z-3.5
G02 F100 X-58.925 Y39.541447 I-17.85 J0
G02 Y70.458553 I8.925 J15.458553
G02 X-32.15 Y55 I8.925 J-15.458553
G01 F30 Z-4
G02 F100 X-58.925 Y39.541447 I-17.85 J0
G02 Y70.458553 I8.925 J15.458553
G02 X-32.15 Y55 I8.925 J-15.458553
G00 Z3.5
G00 X-4.15
G01 F30 Z-0.5
G03 F100 X-5 Y54.15 I-0.85 J0
G01 X-2.85 Y52
G01 Y18
G00 Z3.5
G00 X-4.15 Y55
G01 F30 Z-1
G03 F100 X-5 Y54.15 I-0.85 J0
G01 X-2.85 Y52
G01 Y18
G00 Z3.5
G00 X-4.15 Y55
G01 F30 Z-1.5
G03 F100 X-5 Y54.15 I-0.85 J0
G01 X-2.85 Y52
G01 Y18
G00 Z3.5
G00 X-4.15 Y55
G01 F30 Z-2
G03 F100 X-5 Y54.15 I-0.85 J0
G01 X-2.85 Y52
G01 Y18
G00 Z3.5
G00 X-4.15 Y55
G01 F30 Z-2.5
G03 F100 X-5 Y54.15 I-0.85 J0
G01 X-2.85 Y52
G01 Y18
G00 Z3.5
G00 X-4.15 Y55
G01 F30 Z-3
G03 F100 X-5 Y54.15 I-0.85 J0
G01 X-2.85 Y52
G01 Y18
G00 Z3.5
G00 X-4.15 Y55
G01 F30 Z-3.5
G03 F100 X-5 Y54.15 I-0.85 J0
G01 X-2.85 Y52
G01 Y18
G00 Z3.5
G00 X-4.15 Y55
G01 F30 Z-4
G03 F100 X-5 Y54.15 I-0.85 J0
G01 X-2.85 Y52
G01 Y18
G00 Z-0.5
G01 X-2 Y17.15
G01 X15
G00 Z3.5
G00 X-5 Y15.85
G01 F30 Z-0.5
G03 F100 X-4.15 Y15 I0 J-0.85
G01 X-2 Y17.15
G01 F30 Z-1
G01 F100 X15
G00 Z3.5
G00 X-5 Y15.85
G01 F30 Z-1
G03 F100 X-4.15 Y15 I0 J-0.85
G01 X-2 Y17.15
G01 F30 Z-1.5
G01 F100 X15
G00 Z3.5
G00 X-5 Y15.85
G01 F30 Z-1.5
G03 F100 X-4.15 Y15 I0 J-0.85
G01 X-2 Y17.15
G01 F30 Z-2
G01 F100 X15
G00 Z3.5
G00 X-5 Y15.85
G01 F30 Z-2
G03 F100 X-4.15 Y15 I0 J-0.85
G01 X-2 Y17.15
G01 F30 Z-2.5
G01 F100 X15
G00 Z3.5
G00 X-5 Y15.85
G01 F30 Z-2.5
G03 F100 X-4.15 Y15 I0 J-0.85
G01 X-2 Y17.15
G01 F30 Z-3
G01 F100 X15
G00 Z3.5
G00 X-5 Y15.85
G01 F30 Z-3
G03 F100 X-4.15 Y15 I0 J-0.85
G01 X-2 Y17.15
G01 F30 Z-3.5
G01 F100 X15
G00 Z3.5
G00 X-5 Y15.85
G01 F30 Z-3.5
G03 F100 X-4.15 Y15 I0 J-0.85
G01 X-2 Y17.15
G01 F30 Z-4
G01 F100 X15
G00 Z3.5
G00 X-5 Y15.85
G01 F30 Z-4
G03 F100 X-4.15 Y15 I0 J-0.85
G00 Z3.5
G00 X12.85
G01 F30 Z-0.5
G01 F100 Y55
G00 Z3.5
G00 Y15
G01 F30 Z-1
G01 F100 Y55
G00 Z3.5
G00 Y15
G01 F30 Z-1.5
G01 F100 Y55
G00 Z3.5
G00 Y15
G01 F30 Z-2
G01 F100 Y55
G00 Z3.5
G00 Y15
G01 F30 Z-2.5
G01 F100 Y55
G00 Z3.5
G00 Y15
G01 F30 Z-3
G01 F100 Y55
G00 Z3.5
G00 Y15
G01 F30 Z-3.5
G01 F100 Y55
G00 Z3.5
G00 Y15
G01 F30 Z-4
G01 F100 Y55
G00 Z-0.5
G01 X15 Y52.85
G01 X-2
G00 Z3.5
G00 X15
G01 F30 Z-1
G01 F100 X-2
G00 Z3.5
G00 X15
G01 F30 Z-1.5
G01 F100 X-2
G00 Z3.5
G00 X15
G01 F30 Z-2
G01 F100 X-2
G00 Z3.5
G00 X15
G01 F30 Z-2.5
G01 F100 X-2
G00 Z3.5
G00 X15
G01 F30 Z-3
G01 F100 X-2
G00 Z3.5
G00 X15
G01 F30 Z-3.5
G01 F100 X-2
G00 Z3.5
G00 X15
G01 F30 Z-4
G01 F100 X-2
G00 Z3.5
G00 X-5 Y65.85
G01 F30 Z-0.5
G03 F100 X-4.15 Y65 I0 J-0.85
G01 X-2 Y67.15
G01 X15
G00 Z3.5
G00 X-5 Y65.85
G01 F30 Z-1
G03 F100 X-4.15 Y65 I0 J-0.85
G01 X-2 Y67.15
G01 X15
G00 Z3.5
G00 X-5 Y65.85
G01 F30 Z-1.5
G03 F100 X-4.15 Y65 I0 J-0.85
G01 X-2 Y67.15
G01 X15
G00 Z3.5
G00 X-5 Y65.85
G01 F30 Z-2
G03 F100 X-4.15 Y65 I0 J-0.85
G01 X-2 Y67.15
G01 X15
G00 Z3.5
G00 X-5 Y65.85
G01 F30 Z-2.5
G03 F100 X-4.15 Y65 I0 J-0.85
G01 X-2 Y67.15
G01 X15
G00 Z3.5
G00 X-5 Y65.85
G01 F30 Z-3
G03 F100 X-4.15 Y65 I0 J-0.85
G01 X-2 Y67.15
G01 X15
G00 Z3.5
G00 X-5 Y65.85
G01 F30 Z-3.5
G03 F100 X-4.15 Y65 I0 J-0.85
G01 X-2 Y67.15
G01 X15
G00 Z3.5
G00 X-5 Y65.85
G01 F30 Z-4
G03 F100 X-4.15 Y65 I0 J-0.85
G01 X-2 Y67.15
G01 X15
G00 Z-0.5
G01 X12.85 Y65
G01 Y105
G00 Z3.5
G00 Y65
G01 F30 Z-1
G01 F100 Y105
G00 Z3.5
G00 Y65
G01 F30 Z-1.5
G01 F100 Y105
G00 Z3.5
G00 Y65
G01 F30 Z-2
G01 F100 Y105
G00 Z3.5
G00 Y65
G01 F30 Z-2.5
G01 F100 Y105
G00 Z3.5
G00 Y65
G01 F30 Z-3
G01 F100 Y105
G00 Z3.5
G00 Y65
G01 F30 Z-3.5
G01 F100 Y105
G00 Z3.5
G00 Y65
G01 F30 Z-4
G01 F100 Y105
G00 Z-0.5
G01 X15 Y102.85
G01 X-2
G00 Z3.5
G00 X15
G01 F30 Z-1
G01 F100 X-2
G00 Z3.5
G00 X15
G01 F30 Z-1.5
G01 F100 X-2
G00 Z3.5
G00 X15
G01 F30 Z-2
G01 F100 X-2
G00 Z3.5
G00 X15
G01 F30 Z-2.5
G01 F100 X-2
G00 Z3.5
G00 X15
G01 F30 Z-3
G01 F100 X-2
G00 Z3.5
G00 X15
G01 F30 Z-3.5
G01 F100 X-2
G00 Z3.5
G00 X15
G01 F30 Z-4
G01 F100 X-2
G00 Z-0.5
G01 X-2.85 Y102
G01 Y68
G00 Z3.5
G00 X-4.15 Y105
G01 F30 Z-0.5
G03 F100 X-5 Y104.15 I-0.85 J0
G01 X-2.85 Y102
G01 F30 Z-1
G01 F100 Y68
G00 Z3.5
G00 X-4.15 Y105
G01 F30 Z-1
G03 F100 X-5 Y104.15 I-0.85 J0
G01 X-2.85 Y102
G01 F30 Z-1.5
G01 F100 Y68
G00 Z3.5
G00 X-4.15 Y105
G01 F30 Z-1.5
G03 F100 X-5 Y104.15 I-0.85 J0
G01 X-2.85 Y102
G01 F30 Z-2
G01 F100 Y68
G00 Z3.5
G00 X-4.15 Y105
G01 F30 Z-2
G03 F100 X-5 Y104.15 I-0.85 J0
G01 X-2.85 Y102
G01 F30 Z-2.5
G01 F100 Y68
G00 Z3.5
G00 X-4.15 Y105
G01 F30 Z-2.5
G03 F100 X-5 Y104.15 I-0.85 J0
G01 X-2.85 Y102
G01 F30 Z-3
G01 F100 Y68
G00 Z3.5
G00 X-4.15 Y105
G01 F30 Z-3
G03 F100 X-5 Y104.15 I-0.85 J0
G01 X-2.85 Y102
G01 F30 Z-3.5
G01 F100 Y68
G00 Z3.5
G00 X-4.15 Y105
G01 F30 Z-3.5
G03 F100 X-5 Y104.15 I-0.85 J0
G01 X-2.85 Y102
G01 F30 Z-4
G01 F100 Y68
G00 Z3.5
G00 X-4.15 Y105
G01 F30 Z-4
G03 F100 X-5 Y104.15 I-0.85 J0
G00 Z3.5
G00 X67.15 Y80
G01 F30 Z-0.5
G01 F100 Y40
G00 Z3.5
G00 Y80
G01 F30 Z-1
G01 F100 Y40
G00 Z3.5
G00 Y80
G01 F30 Z-1.5
G01 F100 Y40
G00 Z3.5
G00 Y80
G01 F30 Z-2
G01 F100 Y40
G00 Z3.5
G00 Y80
G01 F30 Z-2.5
G01 F100 Y40
G00 Z3.5
G00 Y80
G01 F30 Z-3
G01 F100 Y40
G00 Z3.5
G00 Y80
G01 F30 Z-3.5
G01 F100 Y40
G00 Z3.5
G00 Y80
G01 F30 Z-4
G01 F100 Y40
G00 Z-0.5
G01 X65 Y42.15
G01 X82
G00 Z3.5
G00 X65
G01 F30 Z-1
G01 F100 X82
G00 Z3.5
G00 X65
G01 F30 Z-1.5
G01 F100 X82
G00 Z3.5
G00 X65
G01 F30 Z-2
G01 F100 X82
G00 Z3.5
G00 X65
G01 F30 Z-2.5
G01 F100 X82
G00 Z3.5
G00 X65
G01 F30 Z-3
G01 F100 X82
G00 Z3.5
G00 X65
G01 F30 Z-3.5
G01 F100 X82
G00 Z3.5
G00 X65
G01 F30 Z-4
G01 F100 X82
G00 Z-0.5
G01 X82.85 Y43
G01 Y77
G00 Z3.5
G00 X84.15 Y40
G01 F30 Z-0.5
G03 F100 X85 Y40.85 I0.85 J0
G01 X82.85 Y43
G01 F30 Z-1
G01 F100 Y77
G00 Z3.5
G00 X84.15 Y40
G01 F30 Z-1
G03 F100 X85 Y40.85 I0.85 J0
G01 X82.85 Y43
G01 F30 Z-1.5
G01 F100 Y77
G00 Z3.5
G00 X84.15 Y40
G01 F30 Z-1.5
G03 F100 X85 Y40.85 I0.85 J0
G01 X82.85 Y43
G01 F30 Z-2
G01 F100 Y77
G00 Z3.5
G00 X84.15 Y40
G01 F30 Z-2
G03 F100 X85 Y40.85 I0.85 J0
G01 X82.85 Y43
G01 F30 Z-2.5
G01 F100 Y77
G00 Z3.5
G00 X84.15 Y40
G01 F30 Z-2.5
G03 F100 X85 Y40.85 I0.85 J0
G01 X82.85 Y43
G01 F30 Z-3
G01 F100 Y77
G00 Z3.5
G00 X84.15 Y40
G01 F30 Z-3
G03 F100 X85 Y40.85 I0.85 J0
G01 X82.85 Y43
G01 F30 Z-3.5
G01 F100 Y77
G00 Z3.5
G00 X84.15 Y40
G01 F30 Z-3.5
G03 F100 X85 Y40.85 I0.85 J0
G01 X82.85 Y43
G01 F30 Z-4
G01 F100 Y77
G00 Z3.5
G00 X84.15 Y40
G01 F30 Z-4
G03 F100 X85 Y40.85 I0.85 J0
G00 Z3.5
G00 X82 Y77.85
G01 F30 Z-0.5
G01 F100 X65
G00 Z3.5
G00 X85 Y79.15
G01 F30 Z-0.5
G03 F100 X84.15 Y80 I0 J0.85
G01 X82 Y77.85
G01 F30 Z-1
G01 F100 X65
G00 Z3.5
G00 X85 Y79.15
G01 F30 Z-1
G03 F100 X84.15 Y80 I0 J0.85
G01 X82 Y77.85
G01 F30 Z-1.5
G01 F100 X65
G00 Z3.5
G00 X85 Y79.15
G01 F30 Z-1.5
G03 F100 X84.15 Y80 I0 J0.85
G01 X82 Y77.85
G01 F30 Z-2
G01 F100 X65
G00 Z3.5
G00 X85 Y79.15
G01 F30 Z-2
G03 F100 X84.15 Y80 I0 J0.85
G01 X82 Y77.85
G01 F30 Z-2.5
G01 F100 X65
G00 Z3.5
G00 X85 Y79.15
G01 F30 Z-2.5
G03 F100 X84.15 Y80 I0 J0.85
G01 X82 Y77.85
G01 F30 Z-3
G01 F100 X65
G00 Z3.5
G00 X85 Y79.15
G01 F30 Z-3
G03 F100 X84.15 Y80 I0 J0.85
G01 X82 Y77.85
G01 F30 Z-3.5
G01 F100 X65
G00 Z3.5
G00 X85 Y79.15
G01 F30 Z-3.5
G03 F100 X84.15 Y80 I0 J0.85
G01 X82 Y77.85
G01 F30 Z-4
G01 F100 X65
G00 Z3.5
G00 X85 Y79.15
G01 F30 Z-4
G03 F100 X84.15 Y80 I0 J0.85
( MOPProfile_5 )
G00 Z3.5
G00 X-102.15 Y115
G01 F30 Z-0.5
G01 F100 Y-115
G03 X-90 Y-127.15 I12.15 J0
G01 X90
G03 X102.15 Y-115 I0 J12.15
G01 Y115
G03 X90 Y127.15 I-12.15 J0
G01 X-90
G03 X-102.15 Y115 I0 J-12.15
G01 F30 Z-1
G01 F100 Y-115
G03 X-90 Y-127.15 I12.15 J0
G01 X90
G03 X102.15 Y-115 I0 J12.15
G01 Y115
G03 X90 Y127.15 I-12.15 J0
G01 X-90
G03 X-102.15 Y115 I0 J-12.15
G01 F30 Z-1.5
G01 F100 Y-115
G03 X-90 Y-127.15 I12.15 J0
G01 X90
G03 X102.15 Y-115 I0 J12.15
G01 Y115
G03 X90 Y127.15 I-12.15 J0
G01 X-90
G03 X-102.15 Y115 I0 J-12.15
G01 F30 Z-2
G01 F100 Y-115
G03 X-90 Y-127.15 I12.15 J0
G01 X90
G03 X102.15 Y-115 I0 J12.15
G01 Y115
G03 X90 Y127.15 I-12.15 J0
G01 X-90
G03 X-102.15 Y115 I0 J-12.15
G01 F30 Z-2.5
G01 F100 Y-115
G03 X-90 Y-127.15 I12.15 J0
G01 X90
G03 X102.15 Y-115 I0 J12.15
G01 Y115
G03 X90 Y127.15 I-12.15 J0
G01 X-90
G03 X-102.15 Y115 I0 J-12.15
G01 F30 Z-3
G01 F100 Y-115
G03 X-90 Y-127.15 I12.15 J0
G01 X90
G03 X102.15 Y-115 I0 J12.15
G01 Y115
G03 X90 Y127.15 I-12.15 J0
G01 X-90
G03 X-102.15 Y115 I0 J-12.15
G01 F30 Z-3.5
G01 F100 Y-115
G03 X-90 Y-127.15 I12.15 J0
G01 X90
G03 X102.15 Y-115 I0 J12.15
G01 Y115
G03 X90 Y127.15 I-12.15 J0
G01 X-90
G03 X-102.15 Y115 I0 J-12.15
G01 F30 Z-4
G01 F100 Y-115
G03 X-90 Y-127.15 I12.15 J0
G01 X90
G03 X102.15 Y-115 I0 J12.15
G01 Y115
G03 X90 Y127.15 I-12.15 J0
G01 X-90
G03 X-102.15 Y115 I0 J-12.15
G00 Z3.5
M05
M30
